packages/design-system/src/icons/assets/ic_error_404.svg

<svg width="114" height="41" viewBox="0 0 114 41" fill="none" xmlns="http://www.w3.org/2000/svg">
<path d="M80.8271 33.6598V26.9672L98.0366 0.140625H108.666V26.8547H113.84V33.6598H108.666V40.8585H100.624V33.6598H80.8271ZM89.3756 26.8547H100.736V9.42025H100.342L89.3756 26.5173V26.8547Z" fill="#C5C6CB"/>
<path d="M0.159973 33.6598V26.9672L17.3695 0.140625H27.9988V26.8547H33.1729V33.6598H27.9988V40.8585H19.9565V33.6598H0.159973ZM8.70848 26.8547H20.069V9.42025H19.6753L8.70848 26.5173V26.8547Z" fill="#C5C6CB"/>
<path fill-rule="evenodd" clip-rule="evenodd" d="M67.3266 3.05786L61.7314 8.65302V0.865234H51.6555V8.65501L46.2359 3.23542L39.1111 10.3602L44.3806 15.6297H36.8915L36.8915 20.6366H51.3879C56.3088 19.8602 56.9731 17.2864 56.9731 9.32308C56.9731 17.2864 57.6374 19.8602 62.5584 20.6366H76.9891V15.7694C76.9773 15.7228 76.9654 15.6762 76.9533 15.6297H69.0043L74.4514 10.1827L67.3266 3.05786ZM76.9891 21.0868H64.0305C57.7656 21.6063 56.9731 23.8747 56.9731 32.5721C56.9731 23.8747 56.1807 21.6063 49.9158 21.0868H36.8915L36.8915 25.7057H44.6788L39.1368 31.2477L46.2616 38.3725L51.6555 32.9786V40.8589H61.7314V32.9806L67.4541 38.7032L67.4837 38.6856L74.5848 31.5844L68.7061 25.7057H76.9891V21.0868Z" fill="#C5C6CB"/>
</svg>

<svg xmlns="http://www.w3.org/2000/svg" width="114" height="41" fill="none"><path fill="#C5C6CB" d="M80.827 33.66v-6.693L98.037.141h10.629v26.714h5.174v6.805h-5.174v7.199h-8.042v-7.2zm8.549-6.805h11.36V9.42h-.394L89.376 26.517zM.16 33.66v-6.693L17.37.141h10.629v26.714h5.174v6.805h-5.174v7.199h-8.042v-7.2zm8.548-6.805H20.07V9.42h-.394L8.708 26.517z"/><path fill="#C5C6CB" fill-rule="evenodd" d="M67.327 3.058 61.73 8.653V.865H51.656v7.79l-5.42-5.42-7.125 7.125 5.27 5.27h-7.49v5.007h14.497c4.92-.777 5.585-3.35 5.585-11.314 0 7.963.664 10.537 5.585 11.314H76.99v-4.868l-.036-.14h-7.949l5.447-5.446zm9.662 18.029H64.031c-6.265.52-7.058 2.788-7.058 11.485 0-8.697-.792-10.966-7.057-11.485H36.892v4.619h7.787l-5.542 5.542 7.125 7.125 5.394-5.394v7.88H61.73V32.98l5.723 5.722.03-.017 7.1-7.102-5.878-5.878h8.283z" clip-rule="evenodd"/></svg>
